assets/azureimages/original.svg

<svg height="18" viewBox="0 0 18 18" width="18" xmlns="http://www.w3.org/2000/svg" xmlns:xlink="http://www.w3.org/1999/xlink"><linearGradient id="a" gradientUnits="userSpaceOnUse" x1="8.8" x2="8.8" y1="12.87" y2=".87"><stop offset="0" stop-color="#0078d4"/><stop offset=".82" stop-color="#5ea0ef"/></linearGradient><linearGradient id="b" gradientUnits="userSpaceOnUse" x1="8.81" x2="8.81" y1="17.5" y2="12.87"><stop offset="0" stop-color="#1490df"/><stop offset=".98" stop-color="#1f56a3"/></linearGradient><rect fill="url(#a)" height="12" rx=".6" width="18" x="-.2" y=".87"/><path d="m11.8 5.12v3.49l-3 1.76v-3.5z" fill="#50e6ff"/><path d="m11.8 5.12-2.99 1.76-3.01-1.76 3.01-1.75z" fill="#c3f1ff"/><path d="m8.8 6.88v3.49l-3-1.76v-3.49z" fill="#9cebff"/><path d="m5.8 8.61 3-1.74v3.5z" fill="#c3f1ff"/><path d="m11.8 8.61-3-1.74v3.5z" fill="#9cebff"/><path d="m12.41 16.5c-1.78-.28-1.85-1.56-1.84-3.63h-3.57c0 2.07 0 3.35-1.81 3.63a1 1 0 0 0 -.88 1h9a1.06 1.06 0 0 0 -.9-1" fill="url(#b)"/><path d="m4.68 2.07h-2.75a.66.66 0 0 0 -.66.66v2.76a.33.33 0 0 0 .33.33h.22a.33.33 0 0 0 .33-.33v-2.55h2.53a.33.33 0 0 0 .32-.33v-.21a.33.33 0 0 0 -.32-.33m0 8.66h-2.54v-2.53a.33.33 0 0 0 -.33-.33h-.21a.33.33 0 0 0 -.33.33v2.8a.66.66 0 0 0 .66.67h2.75a.34.34 0 0 0 .32-.39v-.22a.33.33 0 0 0 -.32-.33m11.03-8.63h-2.71a.33.33 0 0 0 -.33.33v.21a.33.33 0 0 0 .33.36h2.53v2.51a.33.33 0 0 0 .33.33h.23a.33.33 0 0 0 .33-.33v-2.75a.66.66 0 0 0 -.71-.66m.34 5.79h-.21a.33.33 0 0 0 -.33.33v2.54h-2.51a.33.33 0 0 0 -.33.33v.22a.33.33 0 0 0 .33.33h2.75a.67.67 0 0 0 .67-.66v-2.76a.33.33 0 0 0 -.37-.33" fill="#fff"/></svg>

<svg xmlns="http://www.w3.org/2000/svg" id="a9383d60-b33f-4c78-8dbe-8ab68ace6065" width="18" height="18" viewBox="0 0 18 18"><defs><linearGradient id="a7cb4d9d-9f89-4e53-8eda-938427310066" x1="8.8" x2="8.8" y1="12.87" y2=".87" gradientUnits="userSpaceOnUse"><stop offset="0" stop-color="#0078d4"/><stop offset=".82" stop-color="#5ea0ef"/></linearGradient><linearGradient id="eab4c6b4-621d-4d9b-b611-15ceb58765b1" x1="8.81" x2="8.81" y1="17.5" y2="12.87" gradientUnits="userSpaceOnUse"><stop offset="0" stop-color="#1490df"/><stop offset=".98" stop-color="#1f56a3"/></linearGradient></defs><title>Icon-compute-33</title><rect width="18" height="12" x="-.2" y=".87" fill="url(#a7cb4d9d-9f89-4e53-8eda-938427310066)" rx=".6"/><path fill="#50e6ff" d="M11.8 5.12v3.49l-3 1.76v-3.5z"/><path fill="#c3f1ff" d="M11.8 5.12 8.81 6.88 5.8 5.12l3.01-1.75z"/><path fill="#9cebff" d="M8.8 6.88v3.49l-3-1.76V5.12z"/><path fill="#c3f1ff" d="m5.8 8.61 3-1.74v3.5z"/><path fill="#9cebff" d="m11.8 8.61-3-1.74v3.5z"/><path fill="url(#eab4c6b4-621d-4d9b-b611-15ceb58765b1)" d="M12.41 16.5c-1.78-.28-1.85-1.56-1.84-3.63H7c0 2.07 0 3.35-1.81 3.63a1 1 0 0 0-.88 1h9a1.06 1.06 0 0 0-.9-1"/><path fill="#fff" d="M4.68 2.07H1.93a.66.66 0 0 0-.66.66v2.76a.33.33 0 0 0 .33.33h.22a.33.33 0 0 0 .33-.33V2.94h2.53A.33.33 0 0 0 5 2.61V2.4a.33.33 0 0 0-.32-.33M4.68 10.73H2.14V8.2a.33.33 0 0 0-.33-.33H1.6a.33.33 0 0 0-.33.33V11a.66.66 0 0 0 .66.67h2.75a.34.34 0 0 0 .32-.39v-.22a.33.33 0 0 0-.32-.33M15.71 2.1H13a.33.33 0 0 0-.33.33v.21A.33.33 0 0 0 13 3h2.53v2.51a.33.33 0 0 0 .33.33h.23a.33.33 0 0 0 .33-.33V2.76a.66.66 0 0 0-.71-.66M16.05 7.89h-.21a.33.33 0 0 0-.33.33v2.54H13a.33.33 0 0 0-.33.33v.22a.33.33 0 0 0 .33.33h2.75a.67.67 0 0 0 .67-.66V8.22a.33.33 0 0 0-.37-.33"/></svg>
